img/youtube.svg

<svg width="580" height="277" fill="none" xmlns="http://www.w3.org/2000/svg"><path opacity=".5" d="M580 213.205H0v62.85h580v-62.85z" fill="#333"/><path d="M571.149 223.603H9.783v3.103H571.15v-3.103z" fill="#DBE2E8"/><path d="M107.615 223.603H9.783v3.103h97.832v-3.103z" fill="#FF4D43"/><path d="M117.398 240.983v20.95l14.907-10.552-14.907-10.398zm20.808 0h-3.416v20.95h3.416v-20.95zm-63.046 0v20.95l14.907-10.552-14.908-10.398zm-27.332 0v20.95l-14.752-10.552 14.752-10.398zM26.95 261.822h3.417v-20.95H26.95v20.95zm438.603-14.321l-.621-1.552s1.553-3.569 1.397-3.724l-2.174-2.018c-.155-.155-3.727 1.552-3.727 1.552l-1.708-.621s-1.397-3.724-1.708-3.724h-2.95c-.156 0-1.553 3.724-1.553 3.724l-1.708.621s-3.727-1.552-3.883-1.396l-2.174 2.017c-.155.155 1.553 3.724 1.553 3.724l-.621 1.552s-3.727 1.397-3.727 1.552v2.949c0 .155 3.727 1.551 3.727 1.551l.621 1.552s-1.553 3.57-1.397 3.725l2.174 2.017c.155.155 3.727-1.552 3.727-1.552l1.708.621s1.397 3.569 1.708 3.569h2.95c.156 0 1.553-3.724 1.553-3.724l1.708-.621s3.727 1.552 3.883 1.397l2.174-2.018c.155-.155-1.553-3.724-1.553-3.724l.621-1.552s3.727-1.397 3.727-1.707v-2.948c0 .155-3.727-1.242-3.727-1.242zm-5.435 3.104c0 2.327-2.019 4.19-4.348 4.19-2.329 0-4.348-1.863-4.348-4.19 0-2.328 2.019-4.19 4.348-4.19 2.329 0 4.348 1.862 4.348 4.19zm59.475 10.087h-31.057v-20.329h31.057v20.329zm-28.728-2.328h26.399v-15.829h-26.399v15.829zm61.96-18.001h7.919v7.914h2.33v-10.242h-10.249v2.328zm-12.268 7.914v-7.914h7.92v-2.328h-10.249v10.242h2.329zm20.187 4.345v7.915h-7.919v2.172h10.249v-10.087h-2.33zm-12.267 7.915h-7.92v-7.915h-2.329v10.087h10.249v-2.172z" fill="#fff"/></svg>

<svg width="580" height="277" viewBox="0 0 580 277" fill="none" xmlns="http://www.w3.org/2000/svg">
<path opacity="0.5" d="M580 213.205H0V276.055H580V213.205Z" fill="#333333"/>
<path d="M571.149 223.603H9.7832V226.706H571.149V223.603Z" fill="#DBE2E8"/>
<path d="M107.615 223.603H9.7832V226.706H107.615V223.603Z" fill="#FF4D43"/>
<path d="M117.398 240.983V261.933L132.305 251.381L117.398 240.983Z" fill="white"/>
<path d="M138.206 240.983H134.79V261.933H138.206V240.983Z" fill="white"/>
<path d="M75.1592 240.983V261.933L90.0668 251.381L75.1592 240.983Z" fill="white"/>
<path d="M47.8285 240.983V261.933L33.0762 251.381L47.8285 240.983Z" fill="white"/>
<path d="M26.9504 261.822H30.3667L30.3667 240.872H26.9504L26.9504 261.822Z" fill="white"/>
<path d="M465.553 247.501L464.932 245.949C464.932 245.949 466.485 242.38 466.329 242.225L464.155 240.207C464 240.052 460.428 241.759 460.428 241.759L458.72 241.138C458.72 241.138 457.323 237.414 457.012 237.414H454.062C453.906 237.414 452.509 241.138 452.509 241.138L450.801 241.759C450.801 241.759 447.074 240.207 446.918 240.363L444.744 242.38C444.589 242.535 446.297 246.104 446.297 246.104L445.676 247.656C445.676 247.656 441.949 249.053 441.949 249.208V252.157C441.949 252.312 445.676 253.708 445.676 253.708L446.297 255.26C446.297 255.26 444.744 258.83 444.9 258.985L447.074 261.002C447.229 261.157 450.801 259.45 450.801 259.45L452.509 260.071C452.509 260.071 453.906 263.64 454.217 263.64H457.167C457.323 263.64 458.72 259.916 458.72 259.916L460.428 259.295C460.428 259.295 464.155 260.847 464.311 260.692L466.485 258.674C466.64 258.519 464.932 254.95 464.932 254.95L465.553 253.398C465.553 253.398 469.28 252.001 469.28 251.691V248.743C469.28 248.898 465.553 247.501 465.553 247.501ZM460.118 250.605C460.118 252.932 458.099 254.795 455.77 254.795C453.441 254.795 451.422 252.932 451.422 250.605C451.422 248.277 453.441 246.415 455.77 246.415C458.099 246.415 460.118 248.277 460.118 250.605Z" fill="white"/>
<path d="M519.593 260.692H488.536V240.363H519.593V260.692ZM490.865 258.364H517.264V242.535H490.865V258.364Z" fill="white"/>
<path d="M552.825 240.363H560.744V248.277H563.074V238.035H552.825V240.363Z" fill="white"/>
<path d="M540.557 248.277V240.363H548.477V238.035H538.228V248.277H540.557Z" fill="white"/>
<path d="M560.744 252.622V260.537H552.825V262.709H563.074V252.622H560.744Z" fill="white"/>
<path d="M548.477 260.537H540.557V252.622H538.228V262.709H548.477V260.537Z" fill="white"/>
</svg>
